public/svgs/youtube.svg

<svg xmlns="http://www.w3.org/2000/svg" width="1em" height="1em" fill="current" viewBox="0 0 24 24"><g clip-path="url(#a)"><path d="M10 16V9l6 3.512zm13.76-8.333s-.235-1.665-.954-2.399c-.913-.963-1.936-.967-2.405-1.023C17.043 4 12.005 4 12.005 4h-.01s-5.038 0-8.396.245c-.47.056-1.492.06-2.406 1.023-.719.734-.953 2.4-.953 2.4S0 9.622 0 11.577v1.835c0 1.956.24 3.912.24 3.912s.234 1.665.953 2.399c.914.963 2.113.932 2.647 1.033C5.76 20.943 12 21 12 21s5.043-.008 8.401-.252c.47-.057 1.492-.061 2.405-1.024.72-.734.954-2.4.954-2.4s.24-1.955.24-3.911v-1.834c0-1.956-.24-3.912-.24-3.912"/></g><defs><clipPath id="a"><path fill="#fff" d="M0 0h24v24H0z"/></clipPath></defs></svg>

<svg width="1em" height="1em" viewBox="0 0 24 24" fill="current" xmlns="http://www.w3.org/2000/svg">
    <g id="youtube 1" clip-path="url(#clip0_13757_955)">
        <path id="Vector"
            d="M10 16V9L16 12.512L10 16ZM23.76 7.667C23.76 7.667 23.525 6.002 22.806 5.268C21.893 4.305 20.87 4.301 20.401 4.245C17.043 4 12.005 4 12.005 4H11.995C11.995 4 6.957 4 3.599 4.245C3.129 4.301 2.107 4.305 1.193 5.268C0.474 6.002 0.24 7.668 0.24 7.668C0.24 7.668 0 9.622 0 11.577V13.412C0 15.368 0.24 17.324 0.24 17.324C0.24 17.324 0.474 18.989 1.193 19.723C2.107 20.686 3.306 20.655 3.84 20.756C5.76 20.943 12 21 12 21C12 21 17.043 20.992 20.401 20.748C20.871 20.691 21.893 20.687 22.806 19.724C23.526 18.99 23.76 17.324 23.76 17.324C23.76 17.324 24 15.369 24 13.413V11.579C24 9.623 23.76 7.667 23.76 7.667Z"
            fill="current" />
    </g>
    <defs>
        <clipPath id="clip0_13757_955">
            <rect width="24" height="24" fill="white" />
        </clipPath>
    </defs>
</svg>
